X: 7429
T: Close Of An Irish Day, The
R: waltz
M: 3/4
K: Eminor
AF|E4 E2|F4 A2|B4 c2|d4 c2|
B2 A2 F2|E4 E2|E6|E6|
e4 e2|f4 e2|d4 c2|B2 A2 F2|
E4 E2|F4 A2|B6|B6|
e4 e2|f4 e2|d4 c2|B2 A2 F2|
E4 E2|F4 A2|B6|B2 A2 F2|
E4 E2|F4 A2|B4 c2|d4 c2|
B2 A2 F2|E6|E6|E6||

